packages/core/src/svgs/tokens/branded/XEP.svg

<svg width="24" height="24" viewBox="0 0 24 24" fill="none" xmlns="http://www.w3.org/2000/svg">
<path d="M12.0028 21.9981C13.4703 21.998 14.9197 21.6747 16.2482 21.0515C17.5767 20.4282 18.7518 19.5201 19.69 18.3918C20.6282 17.2634 21.3064 15.9422 21.6766 14.5222C22.0468 13.1022 22.0999 11.6181 21.8321 10.1753L19.4888 11.55L19.5014 11.9999C19.5027 13.5717 19.0101 15.104 18.0932 16.3807C17.1764 17.6572 15.8816 18.6134 14.3918 19.1141C12.9019 19.6149 11.2925 19.6349 9.79074 19.1712C8.289 18.7076 6.9709 17.7837 6.02267 16.5304L9.01583 14.7431C9.66156 15.3091 10.4699 15.6559 11.325 15.7336C12.1801 15.8113 13.0377 15.6162 13.7749 15.176C14.5121 14.736 15.0909 14.0736 15.4282 13.2841C15.7654 12.4945 15.8438 11.6184 15.6521 10.7815L18.9014 8.84431L20.9886 7.6258C20.2075 6.02049 19.0109 4.65358 17.5229 3.66708C16.035 2.68056 14.3101 2.11043 12.5274 2.01592C10.7447 1.92139 8.96917 2.30593 7.38529 3.12958C5.80142 3.95323 4.46697 5.18594 3.52055 6.69966C2.57414 8.2134 2.05031 9.95299 2.00345 11.7375C1.95658 13.5222 2.38843 15.2868 3.25409 16.8481C4.11976 18.4094 5.38769 19.7104 6.92616 20.616C8.46463 21.5218 10.2175 21.9988 12.0028 21.9981ZM7.69109 12.4062L4.81664 14.1246C4.34474 12.5282 4.41744 10.8202 5.02329 9.26974C5.62914 7.71921 6.7337 6.4144 8.16288 5.5609C9.59215 4.70738 11.2647 4.3537 12.9169 4.5556C14.5694 4.75749 16.1076 5.50348 17.2892 6.67598L14.2273 8.50689C13.5814 7.99431 12.7948 7.69047 11.972 7.63576C11.1492 7.58107 10.3292 7.77808 9.62117 8.20064C8.91305 8.6232 8.35033 9.25123 8.00781 10.0014C7.66528 10.7514 7.55918 11.588 7.70358 12.3999L7.69109 12.4062ZM18.1266 8.04447L13.5837 10.7815V12.781L11.6903 13.8746L10.0344 12.9185L5.67898 15.5367L5.42902 15.1244L9.79686 12.4999V10.5939L11.6903 9.50041L13.265 10.4127L17.8767 7.6383L18.1266 8.04447Z" fill="url(#paint0_linear_364_5523)"/>
<defs>
<linearGradient id="paint0_linear_364_5523" x1="12" y1="2.00189" x2="12" y2="21.9981" gradientUnits="userSpaceOnUse">
<stop stop-color="#017FEE"/>
<stop offset="1" stop-color="#171B6E"/>
</linearGradient>
</defs>
</svg>

<svg xmlns="http://www.w3.org/2000/svg" width="24" height="24" fill="none" viewBox="0 0 24 24">
    <path fill="url(#XEP__a)" d="M12.003 21.998a9.998 9.998 0 0 0 9.83-11.823l-2.344 1.375.012.45a7.5 7.5 0 0 1-13.478 4.53l2.993-1.787a4.06 4.06 0 0 0 6.636-3.962l3.25-1.937 2.087-1.218a9.998 9.998 0 1 0-8.986 14.372M7.69 12.406l-2.874 1.719a7.499 7.499 0 0 1 12.472-7.449l-3.062 1.83A4.061 4.061 0 0 0 7.704 12.4zm10.436-4.362-4.543 2.737v2l-1.894 1.094-1.656-.957-4.355 2.619-.25-.413L9.797 12.5v-1.906L11.69 9.5l1.575.913 4.612-2.775z"/>
    <defs>
        <linearGradient id="XEP__a" x1="12" x2="12" y1="2.002" y2="21.998" gradientUnits="userSpaceOnUse">
            <stop stop-color="#017FEE"/>
            <stop offset="1" stop-color="#171B6E"/>
        </linearGradient>
    </defs>
</svg>
